X: 16423
T: Haapavesi
R: waltz
M: 3/4
K: Dmajor
A cA|:cd dA cA|cd dA cd|e2 eg fd|e2 A2 Bc|
cd dA cA|cd dA cd|e2 ef e/d/c|1 d3 A cA:|2 d3 e fg||
|:a2 ag fd|g3 f g2|eA Ag fd|e2 A2 fg|
a2 ag fd|g3 (f f)g|e2 ef e/d/c|1 d3 efg:|2 d3 A cA||

